X:7
T:Alex MacMaster's Reel
R:reel
C:Jerry Holland
O:Cape Breton Island
S:http://www.cranfordpub.com
D:Fiddler's Choice
B:Jerry Holland the 2nd Collection, 2000
Z:psc, (re-formatted,updated 9/19/04)
N:http://www.jerryholland.com
H:                                                        copyrights Fiddlesticksmusic, SOCAN
L:1/8
Q:333
M:C|
K:G
P:AAB
"A"GE|DEGA BAB2|dBdb ageg|DEGA B2ge|dBAG A2GE|
DEGA BAB2|dBdb ageg|{ga}b2bg a/a/a af|gedB A/A/A:|
"B"ga|bgbg a2ga|beef edBd|bgbg a2ga|bgaf e/e/e ga|
bgbg a2ga|beef edBd|bgbg a2ga|bagf efge|]
